X: 2
T: An Orkney
M: 4/4
L: 1/8
R: barndance / schottische
K: D Major
|: FG | 
A2 f2 f2 e^d | e2 B2 B2 ed | c2 e2 c2 Bc | BA^GB A2 F=G |
A2 f2 f2 e^d | e2 B2 B3 A | ^GABA =gecA | d2 f2 d2 :|
|: fg | 
a2 d2 f2 ag | fAde f2 ef | g2 b2 c2 Ac | dcde fefg |
a2 d2 f3 a | fdAd f2 ed | cdef gABc | dfec d2 :|
